files/resources/svgs/general/o-trophy.svg

<svg width="24" height="24" viewBox="0 0 24 24" fill="none" xmlns="http://www.w3.org/2000/svg">
<path d="M16.5003 18.75H7.50026M16.5003 18.75C18.1571 18.75 19.5003 20.0931 19.5003 21.75H4.50026C4.50026 20.0931 5.8434 18.75 7.50026 18.75M16.5003 18.75V15.375C16.5003 14.7537 15.9966 14.25 15.3753 14.25H14.5036M7.50026 18.75V15.375C7.50026 14.7537 8.00394 14.25 8.62526 14.25H9.49689M14.5036 14.25H9.49689M14.5036 14.25C13.9563 13.3038 13.6097 12.227 13.5222 11.0777M9.49689 14.25C10.0442 13.3038 10.3908 12.227 10.4783 11.0777M5.25026 4.23636C4.26796 4.3792 3.29561 4.55275 2.33423 4.75601C2.78454 7.42349 4.99518 9.49282 7.72991 9.72775M5.25026 4.23636V4.5C5.25026 6.60778 6.21636 8.48992 7.72991 9.72775M5.25026 4.23636V2.72089C7.45568 2.41051 9.70922 2.25 12.0003 2.25C14.2913 2.25 16.5448 2.41051 18.7503 2.72089V4.23636M7.72991 9.72775C8.51748 10.3719 9.45329 10.8415 10.4783 11.0777M18.7503 4.23636V4.5C18.7503 6.60778 17.7842 8.48992 16.2706 9.72775M18.7503 4.23636C19.7326 4.3792 20.7049 4.55275 21.6663 4.75601C21.216 7.42349 19.0053 9.49282 16.2706 9.72775M16.2706 9.72775C15.483 10.3719 14.5472 10.8415 13.5222 11.0777M13.5222 11.0777C13.0331 11.1904 12.5236 11.25 12.0003 11.25C11.4769 11.25 10.9675 11.1904 10.4783 11.0777" stroke="#0F172A" stroke-width="1.5" stroke-linecap="round" stroke-linejoin="round"/>
</svg>

<svg xmlns="http://www.w3.org/2000/svg" fill="none" viewBox="0 0 24 24" stroke-width="1.5" stroke="currentColor" aria-hidden="true">
  <path stroke-linecap="round" stroke-linejoin="round" d="M16.5 18.75h-9m9 0a3 3 0 013 3h-15a3 3 0 013-3m9 0v-3.375c0-.621-.503-1.125-1.125-1.125h-.871M7.5 18.75v-3.375c0-.621.504-1.125 1.125-1.125h.872m5.007 0H9.497m5.007 0a7.454 7.454 0 01-.982-3.172M9.497 14.25a7.454 7.454 0 00.981-3.172M5.25 4.236c-.982.143-1.954.317-2.916.52A6.003 6.003 0 007.73 9.728M5.25 4.236V4.5c0 2.108.966 3.99 2.48 5.228M5.25 4.236V2.721C7.456 2.41 9.71 2.25 12 2.25c2.291 0 4.545.16 6.75.47v1.516M7.73 9.728a6.726 6.726 0 002.748 1.35m8.272-6.842V4.5c0 2.108-.966 3.99-2.48 5.228m2.48-5.492a46.32 46.32 0 012.916.52 6.003 6.003 0 01-5.395 4.972m0 0a6.726 6.726 0 01-2.749 1.35m0 0a6.772 6.772 0 01-3.044 0"/>
</svg>
